icons/astro/astro-plain-wordmark.svg

<?xml version="1.0" encoding="UTF-8"?>
<svg xmlns="http://www.w3.org/2000/svg" xmlns:xlink="http://www.w3.org/1999/xlink" width="128px" height="128px"
  viewBox="0 0 128 128" version="1.1">
  <path fill-rule="evenodd" fill="#000" fill-opacity="1"
    d="M 21.023438 43.972656 C 21.367188 44.398438 21.542969 44.976562 21.894531 46.128906 L 29.558594 71.328125 C 26.726562 69.859375 23.644531 68.796875 20.394531 68.222656 L 15.402344 51.347656 C 15.320312 51.070312 15.066406 50.878906 14.78125 50.878906 C 14.492188 50.878906 14.238281 51.070312 14.15625 51.347656 L 9.226562 68.214844 C 5.960938 68.785156 2.867188 69.847656 0.0234375 71.324219 L 7.722656 46.125 C 8.074219 44.972656 8.253906 44.398438 8.597656 43.96875 C 8.902344 43.59375 9.296875 43.300781 9.742188 43.121094 C 10.253906 42.917969 10.855469 42.917969 12.058594 42.917969 L 17.558594 42.917969 C 18.765625 42.917969 19.367188 42.917969 19.875 43.121094 C 20.324219 43.300781 20.71875 43.59375 21.023438 43.972656 Z M 21.023438 43.972656 M 21.941406 72.527344 C 20.675781 73.609375 18.15625 74.347656 15.25 74.347656 C 11.683594 74.347656 8.695312 73.238281 7.902344 71.742188 C 7.617188 72.597656 7.554688 73.578125 7.554688 74.203125 C 7.554688 74.203125 7.367188 77.277344 9.503906 79.417969 C 9.503906 78.308594 10.40625 77.40625 11.511719 77.40625 C 13.414062 77.40625 13.414062 79.066406 13.410156 80.414062 C 13.410156 80.453125 13.410156 80.496094 13.410156 80.535156 C 13.410156 82.578125 14.660156 84.332031 16.4375 85.070312 C 16.171875 84.523438 16.019531 83.910156 16.019531 83.261719 C 16.019531 81.3125 17.164062 80.585938 18.492188 79.742188 C 19.550781 79.070312 20.726562 78.324219 21.539062 76.828125 C 21.960938 76.050781 22.199219 75.15625 22.199219 74.203125 C 22.199219 73.621094 22.109375 73.058594 21.941406 72.527344 Z M 21.941406 72.527344 M 47.15625 70.9375 C 50.363281 70.9375 52.769531 69.792969 53.753906 67.851562 C 53.753906 68.777344 53.816406 69.730469 53.96875 70.472656 L 59.242188 70.472656 C 58.996094 69.394531 58.871094 67.914062 58.871094 65.96875 L 58.871094 61.214844 C 58.871094 56.710938 56.21875 54.582031 50.332031 54.582031 C 45.183594 54.582031 41.730469 56.710938 41.332031 60.199219 L 46.816406 60.199219 C 47.003906 58.6875 48.265625 57.855469 50.332031 57.855469 C 52.367188 57.855469 53.507812 58.6875 53.507812 60.414062 L 53.507812 60.878906 L 47.929688 61.371094 C 45.214844 61.648438 43.675781 62.113281 42.59375 62.851562 C 41.453125 63.625 40.867188 64.796875 40.867188 66.246094 C 40.867188 69.144531 43.273438 70.933594 47.15625 70.933594 Z M 49.191406 67.726562 C 47.402344 67.726562 46.324219 67.015625 46.324219 65.875 C 46.324219 64.703125 47.21875 64.085938 49.46875 63.808594 L 53.601562 63.375 L 53.601562 64.304688 C 53.601562 66.371094 51.8125 67.726562 49.191406 67.726562 Z M 49.191406 67.726562 M 70.359375 70.9375 C 75.726562 70.9375 78.46875 68.929688 78.46875 65.691406 C 78.46875 63.007812 76.929688 61.527344 73.195312 61.03125 L 68.542969 60.507812 C 67.214844 60.320312 66.660156 59.984375 66.660156 59.242188 C 66.660156 58.347656 67.554688 57.945312 69.589844 57.945312 C 72.394531 57.945312 74.335938 58.59375 75.910156 59.859375 L 78.40625 57.359375 C 76.683594 55.570312 73.691406 54.582031 69.992188 54.582031 C 64.78125 54.582031 61.882812 56.4375 61.882812 59.550781 C 61.882812 62.265625 63.671875 63.777344 67.371094 64.273438 L 71.5625 64.765625 C 73.226562 64.980469 73.722656 65.289062 73.722656 66.089844 C 73.722656 67.015625 72.796875 67.511719 70.636719 67.511719 C 67.433594 67.511719 65.273438 66.648438 63.824219 65.042969 L 60.988281 67.386719 C 62.871094 69.730469 66.074219 70.9375 70.359375 70.9375 Z M 70.359375 70.9375 M 82.820312 58.535156 L 82.820312 65.042969 C 82.820312 68.867188 84.980469 70.8125 89.605469 70.8125 C 91.023438 70.8125 92.132812 70.65625 93.179688 70.347656 L 93.179688 66.339844 C 92.625 66.460938 91.945312 66.585938 91.054688 66.585938 C 89.109375 66.585938 88.15625 65.722656 88.15625 63.902344 L 88.15625 58.535156 L 93.210938 58.535156 L 93.210938 55.046875 L 88.15625 55.046875 L 88.15625 49.402344 L 82.820312 51.375 L 82.820312 55.046875 L 79.367188 55.046875 L 79.367188 58.535156 Z M 82.820312 58.535156 M 100.867188 55.046875 L 95.996094 55.046875 L 95.996094 70.472656 L 101.328125 70.472656 L 101.328125 64.703125 C 101.328125 63.039062 101.699219 61.527344 102.71875 60.570312 C 103.519531 59.828125 104.660156 59.429688 106.261719 59.429688 C 106.847656 59.429688 107.3125 59.488281 107.835938 59.550781 L 107.835938 54.707031 C 107.496094 54.644531 107.25 54.644531 106.816406 54.644531 C 103.765625 54.644531 101.699219 56.40625 100.867188 59.273438 Z M 100.867188 55.046875 M 118.375 70.9375 C 124.015625 70.9375 127.992188 67.941406 127.992188 62.730469 C 127.992188 57.546875 124.015625 54.582031 118.375 54.582031 C 112.703125 54.582031 108.726562 57.546875 108.726562 62.730469 C 108.726562 67.941406 112.703125 70.9375 118.375 70.9375 Z M 118.375 67.386719 C 115.785156 67.386719 114.152344 65.722656 114.152344 62.730469 C 114.152344 59.734375 115.785156 58.132812 118.375 58.132812 C 120.933594 58.132812 122.566406 59.734375 122.566406 62.730469 C 122.566406 65.722656 120.933594 67.386719 118.375 67.386719 Z M 118.375 67.386719 " />
</svg>

<svg xmlns="http://www.w3.org/2000/svg" viewBox="0 0 128 128"><path fill-rule="evenodd" d="M21.023 43.973c.344.425.52 1.004.872 2.156l7.664 25.2a31.983 31.983 0 0 0-9.164-3.106l-4.993-16.875a.652.652 0 0 0-.62-.47.653.653 0 0 0-.626.47l-4.93 16.867a31.842 31.842 0 0 0-9.203 3.11l7.7-25.2c.351-1.152.53-1.727.875-2.156a2.854 2.854 0 0 1 1.144-.848c.512-.203 1.113-.203 2.317-.203h5.5c1.207 0 1.808 0 2.316.203.45.18.844.473 1.148.852Zm.918 28.554c-1.265 1.082-3.785 1.82-6.691 1.82-3.566 0-6.555-1.109-7.348-2.605-.285.856-.347 1.836-.347 2.461 0 0-.188 3.074 1.949 5.215 0-1.11.902-2.012 2.008-2.012 1.902 0 1.902 1.66 1.898 3.008v.121a4.912 4.912 0 0 0 3.027 4.535 4.13 4.13 0 0 1-.417-1.808c0-1.95 1.144-2.676 2.472-3.52 1.059-.672 2.235-1.418 3.047-2.914.422-.777.66-1.672.66-2.625 0-.582-.09-1.144-.258-1.676Zm25.215-1.59c3.207 0 5.614-1.144 6.598-3.085 0 .925.062 1.878.215 2.62h5.273c-.246-1.077-.37-2.558-.37-4.503v-4.754c0-4.504-2.653-6.633-8.54-6.633-5.148 0-8.602 2.129-9 5.617h5.484c.188-1.511 1.45-2.344 3.516-2.344 2.035 0 3.176.833 3.176 2.56v.464l-5.578.492c-2.715.277-4.254.742-5.336 1.48-1.14.774-1.727 1.946-1.727 3.395 0 2.899 2.406 4.688 6.29 4.688Zm2.035-3.21c-1.789 0-2.867-.711-2.867-1.852 0-1.172.895-1.79 3.145-2.066l4.133-.434v.93c0 2.066-1.79 3.422-4.41 3.422Zm21.168 3.21c5.368 0 8.11-2.007 8.11-5.246 0-2.683-1.54-4.164-5.274-4.66l-4.652-.523c-1.328-.188-1.883-.524-1.883-1.266 0-.894.895-1.297 2.93-1.297 2.805 0 4.746.649 6.32 1.914l2.496-2.5c-1.722-1.789-4.715-2.777-8.414-2.777-5.21 0-8.11 1.855-8.11 4.969 0 2.715 1.79 4.226 5.49 4.722l4.19.493c1.665.214 2.16.523 2.16 1.324 0 .926-.925 1.422-3.085 1.422-3.203 0-5.364-.864-6.813-2.469l-2.836 2.344c1.883 2.343 5.086 3.55 9.371 3.55ZM82.82 58.535v6.508c0 3.824 2.16 5.77 6.785 5.77 1.418 0 2.528-.157 3.575-.465V66.34a9.507 9.507 0 0 1-2.125.246c-1.946 0-2.899-.863-2.899-2.684v-5.367h5.055v-3.488h-5.055v-5.645l-5.336 1.973v3.672h-3.453v3.488Zm18.047-3.488h-4.87v15.426h5.331v-5.77c0-1.664.371-3.176 1.39-4.133.802-.742 1.942-1.14 3.544-1.14.586 0 1.05.058 1.574.12v-4.843c-.34-.062-.586-.062-1.02-.062-3.05 0-5.117 1.761-5.949 4.628Zm17.508 15.89c5.64 0 9.617-2.996 9.617-8.207 0-5.183-3.976-8.148-9.617-8.148-5.672 0-9.648 2.965-9.648 8.148 0 5.211 3.976 8.208 9.648 8.208Zm0-3.55c-2.59 0-4.223-1.664-4.223-4.657 0-2.996 1.633-4.597 4.223-4.597 2.559 0 4.191 1.601 4.191 4.597 0 2.993-1.632 4.657-4.191 4.657Zm0 0"/></svg>
